X: 1383
T: An Seanduine Dóite
R: jig
M: 6/8
K: Adorian
|:D|GAB dBA|GAB B2A|GAB edB|dBA A2D|
GAB dBA|BAB g2e|fed edB|dBA A2:|
|:B|dBB gBB|dBB d2e|dBB gfg|edB A2D|
GAB dBA|BAB g2e|fed edB|dBA A2:|

